!! 00005] TT[TB
!! Eigene Aufnahme
!!!OTL: Jiaofu diao
!!!ARE: Asia, China, Shanxi Shanbei
!! Ethnic Group: Han
!! I, 65, 1)
!!!SCT: C0017
!!!YEM: Copyright 1995, estate of Helmut Schaffrath.
**kern
*ICvox
*Ivox
*M2/4
*k[f#]
*G:
{8d
8g
8g
16g
16g
=1
8a
4.dd}
=2
{16dd
16gg
4dd
8a
=3
4.g
8r}
=4
{8d
8g
8g
8g
=5
8a
8dd
16a
16g
8a}
=6
{8dd
16a
16g
16e
16d
8e
=7
2d}
==
!!!AGN: Shange, Xintianyou. Suku
!! Die Haendler, die auf Pferden Waren transportieren, singen das Lied,
!!    um sich an ihre Heimat zu erinnern.
!!    Saengerin: Huang Bai. +++ Einige Gliss. und Verzierungen.
!!    Fermaten auf den letzten Noten der Phrasen 1 und 3.
!!!ONB: ESAC (Essen Associative Code) Database: CHINA
!!!AMT: simple duple
!!!AIN: vox
!!!EED: Helmut Schaffrath
!!!EEV: 1.0
*-
